X: 41746
T: Valse Du Mois De Novembre
R: waltz
M: 3/4
K: Emajor
|:b3 g bg|a3 c' ba|ga fg ef|de cd B2|
b3 g bg|a3 c' ba|ga fg cd|1 e6:|2 e4 Bc||
|:=d3 c Bc|B3 A GB|AG FE =DF|EF GA Bc|
=d3 c Bc|B3 A GB|AG FE =DF|E6:|

